fixtures/xmp/legacy_pv2010.xmp
<?xpacket begin="﻿" id="W5M0MpCehiHzreSzNTczkc9d"?>
<x:xmpmeta xmlns:x="adobe:ns:meta/" x:xmptk="Adobe XMP Core 5.2-c001">
 <rdf:RDF xmlns:rdf="http://www.w3.org/1999/02/22-rdf-syntax-ns#">
  <rdf:Description rdf:about=""
    xmlns:tiff="http://ns.adobe.com/tiff/1.0/"
    xmlns:crs="http://ns.adobe.com/camera-raw-settings/1.0/"
   tiff:Make="NIKON CORPORATION"
   tiff:Model="NIKON D700"
   crs:Version="6.7"
   crs:ProcessVersion="5.7"
   crs:WhiteBalance="Daylight"
   crs:Temperature="5500"
   crs:Tint="0"
   crs:Exposure="+0.75"
   crs:Shadows="8"
   crs:Brightness="+50"
   crs:Contrast="+25"
   crs:FillLight="15"
   crs:HighlightRecovery="30"
   crs:Clarity="+20"
   crs:Vibrance="+10"
   crs:Saturation="0"
   crs:Sharpness="25"
   crs:HasSettings="True"
   crs:HasCrop="False"
   crs:ToneCurveName="Medium Contrast">
   <crs:ToneCurve>
    <rdf:Seq>
     <rdf:li>0, 0</rdf:li>
     <rdf:li>32, 22</rdf:li>
     <rdf:li>64, 56</rdf:li>
     <rdf:li>128, 128</rdf:li>
     <rdf:li>192, 196</rdf:li>
     <rdf:li>255, 255</rdf:li>
    </rdf:Seq>
   </crs:ToneCurve>
  </rdf:Description>
 </rdf:RDF>
</x:xmpmeta>
<?xpacket end="w"?>
